svg/material-icons/interests/materialiconstwotone/20px.svg

<svg xmlns="http://www.w3.org/2000/svg" width="20" height="20" viewBox="0 0 20 20"><path d="M6 15.5c-.83 0-1.5-.67-1.5-1.5s.67-1.5 1.5-1.5 1.5.67 1.5 1.5-.67 1.5-1.5 1.5zm6.5-3h3v3h-3v-3zm-5.1-5H4.6L6 5.03 7.4 7.5zM14 7c-1.12-.95-2.32-1.87-2.32-2.42 0-.33.27-.58.58-.58.24 0 .4.13.57.29L14 5.4l1.18-1.11c.16-.15.32-.29.56-.29.31 0 .58.25.58.58.01.55-1.2 1.47-2.32 2.42z" opacity=".3"/><path d="M6 11c-1.65 0-3 1.35-3 3s1.35 3 3 3 3-1.35 3-3-1.35-3-3-3zm0 4.5c-.83 0-1.5-.67-1.5-1.5s.67-1.5 1.5-1.5 1.5.67 1.5 1.5-.67 1.5-1.5 1.5zm5 1.5h6v-6h-6v6zm1.5-4.5h3v3h-3v-3zm-5.1-5H4.6L6 5.03 7.4 7.5zM2.01 9H10L6 2 2.01 9zm13.71-6.5c-.81 0-1.39.43-1.72.89-.33-.47-.91-.89-1.72-.89-1.19 0-2.1.98-2.1 2.1 0 1.53 1.85 2.61 3.82 4.4 1.98-1.78 3.82-2.87 3.82-4.4 0-1.12-.9-2.1-2.1-2.1zM14 7c-1.12-.95-2.32-1.87-2.32-2.42 0-.33.27-.58.58-.58.24 0 .4.13.57.29L14 5.4l1.18-1.11c.16-.15.32-.29.56-.29.31 0 .58.25.58.58.01.55-1.2 1.47-2.32 2.42z"/></svg>

<svg xmlns="http://www.w3.org/2000/svg" enable-background="new 0 0 20 20" height="20" viewBox="0 0 20 20" width="20"><rect fill="none" height="20" width="20"/><path d="M6,15.5c-0.83,0-1.5-0.67-1.5-1.5s0.67-1.5,1.5-1.5s1.5,0.67,1.5,1.5S6.83,15.5,6,15.5z M12.5,12.5h3v3h-3 V12.5z M7.4,7.5H4.6L6,5.03L7.4,7.5z M14,7c-1.12-0.95-2.32-1.87-2.32-2.42c0-0.33,0.27-0.58,0.58-0.58c0.24,0,0.4,0.13,0.57,0.29 L14,5.4l1.18-1.11C15.34,4.14,15.5,4,15.74,4c0.31,0,0.58,0.25,0.58,0.58C16.33,5.13,15.12,6.05,14,7z" opacity=".3"/><path d="M6,11c-1.65,0-3,1.35-3,3s1.35,3,3,3s3-1.35,3-3S7.65,11,6,11z M6,15.5c-0.83,0-1.5-0.67-1.5-1.5s0.67-1.5,1.5-1.5 s1.5,0.67,1.5,1.5S6.83,15.5,6,15.5z M11,17h6v-6h-6V17z M12.5,12.5h3v3h-3V12.5z M7.4,7.5H4.6L6,5.03L7.4,7.5z M2.01,9H10L6,2 L2.01,9z M15.72,2.5c-0.81,0-1.39,0.43-1.72,0.89c-0.33-0.47-0.91-0.89-1.72-0.89c-1.19,0-2.1,0.98-2.1,2.1 c0,1.53,1.85,2.61,3.82,4.4c1.98-1.78,3.82-2.87,3.82-4.4C17.82,3.48,16.92,2.5,15.72,2.5z M14,7c-1.12-0.95-2.32-1.87-2.32-2.42 c0-0.33,0.27-0.58,0.58-0.58c0.24,0,0.4,0.13,0.57,0.29L14,5.4l1.18-1.11C15.34,4.14,15.5,4,15.74,4c0.31,0,0.58,0.25,0.58,0.58 C16.33,5.13,15.12,6.05,14,7z"/></svg>
